X: 695
T: Agata
R: slip jig
M: 9/8
K: Gmajor
"G"BGd B3 GBd|"D"AFd A3 AGF|"C"GEF G2 A BAG|"D"A2G FDE FGA|
"G(Em)"BGd B3 GBd|"D"AFd A3 AGF|"C"EFG "D"FGA AGF|1 "G"G3 G2 A AGA:|2 "G"G3 G2 A Bcd||
"C"e3 edc BAG|"D"F3 FED FGA|"Bm"B3 dBG FGF|"Em"E2D EFG "D"ABd|
"C"e3 edc BAG|"D"F3 FED FGA|"C"GBd cAe dBg|"D"age dBA GBd|
"C"e3 edc BAG|"D"A2G FDE FGA|"Bm"d2B BAG FGA|"Em"G2F EFG "D"ABd|
"C"e3 edc BAG|"D"F3 FED FGA|"C"GBd cAe dBg|"D"age dBA G2A||

